lib/svgs/update-file.svg

<?xml version="1.0" encoding="UTF-8"?>
<svg width="16px" height="16px" viewBox="0 0 16 16" version="1.1" xmlns="http://www.w3.org/2000/svg" xmlns:xlink="http://www.w3.org/1999/xlink">
    <!-- Generator: sketchtool 51.3 (57544) - http://www.bohemiancoding.com/sketch -->
    <title>file/update-file</title>
    <desc>Created with sketchtool.</desc>
    <defs></defs>
    <g id="Icons" stroke="none" stroke-width="1" fill="none" fill-rule="evenodd">
        <g id="Web" transform="translate(-243.000000, -1566.000000)" fill="#000000">
            <g id="file/update-file" transform="translate(243.000000, 1566.000000)">
                <path d="M14.331,5.307 L9.493,0.469 C9.193,0.169 8.786,0 8.361,0 L3.6,0 C2.72,0 2,0.72 2,1.6 L2,14.4 C2,15.28 2.72,16 3.6,16 L13.2,16 C14.08,16 14.8,15.28 14.8,14.4 L14.8,6.439 C14.8,6.014 14.631,5.607 14.331,5.307 M13.2,14.8 L3.6,14.8 C3.383,14.8 3.2,14.617 3.2,14.4 L3.2,1.6 C3.2,1.383 3.383,1.2 3.6,1.2 L8.001,1.2 L8.001,5.083 C8.001,6 8.751,6.75 9.668,6.75 L13.6,6.75 L13.6,14.4 C13.6,14.617 13.417,14.8 13.2,14.8 M9.201,1.874 L12.877,5.55 L9.668,5.55 C9.415,5.55 9.201,5.336 9.201,5.083 L9.201,1.874 M10.8503,10.2124 L9.5833,10.2124 C9.2523,10.2124 8.9833,10.4814 8.9833,10.8124 C8.9833,11.1434 9.2523,11.4124 9.5833,11.4124 L10.1443,11.4124 C9.8913,12.1654 9.1873,12.7124 8.3503,12.7124 C7.9123,12.7124 7.5003,12.5674 7.1603,12.2934 C6.9003,12.0864 6.5243,12.1274 6.3163,12.3844 C6.1083,12.6424 6.1493,13.0204 6.4073,13.2284 C6.9553,13.6704 7.6453,13.9124 8.3503,13.9124 C10.0593,13.9124 11.4503,12.5214 11.4503,10.8124 C11.4503,10.4814 11.1823,10.2124 10.8503,10.2124 M7.8161,10.8125 C7.8161,10.4805 7.5471,10.2125 7.2161,10.2125 L6.6561,10.2125 C6.9091,9.4595 7.6131,8.9125 8.4501,8.9125 C8.8881,8.9125 9.3001,9.0575 9.6401,9.3315 C9.8981,9.5395 10.2761,9.4985 10.4841,9.2405 C10.6921,8.9825 10.6511,8.6045 10.3931,8.3965 C9.8451,7.9555 9.1551,7.7125 8.4501,7.7125 C6.7401,7.7125 5.3501,9.1035 5.3501,10.8125 C5.3501,11.1435 5.6181,11.4125 5.9501,11.4125 L7.2161,11.4125 C7.5471,11.4125 7.8161,11.1435 7.8161,10.8125" id="Shape"></path>
            </g>
        </g>
    </g>
</svg>

<svg xmlns="http://www.w3.org/2000/svg" viewBox="0 0 16 16">
    <path d="M14.331 5.307L9.493.469A1.6 1.6 0 0 0 8.361 0H3.6C2.72 0 2 .72 2 1.6v12.8c0 .88.72 1.6 1.6 1.6h9.6c.88 0 1.6-.72 1.6-1.6V6.439a1.6 1.6 0 0 0-.469-1.132M13.2 14.8H3.6a.405.405 0 0 1-.4-.4V1.6c0-.217.183-.4.4-.4h4.401v3.883c0 .917.75 1.667 1.667 1.667H13.6v7.65c0 .217-.183.4-.4.4M9.201 1.874l3.676 3.676H9.668a.473.473 0 0 1-.467-.467V1.874m1.65 8.338H9.582a.6.6 0 0 0 0 1.2h.561a1.896 1.896 0 0 1-2.984.881.6.6 0 0 0-.753.935 3.103 3.103 0 0 0 5.043-2.416.6.6 0 0 0-.6-.6m-3.034.6a.6.6 0 0 0-.6-.6h-.56a1.896 1.896 0 0 1 2.984-.88.6.6 0 0 0 .753-.936 3.103 3.103 0 0 0-5.043 2.416.6.6 0 0 0 .6.6h1.266a.6.6 0 0 0 .6-.6"/>
</svg>
